images/dragonglass.svg

<svg height="250" viewBox="0 0 250 250" width="250" xmlns="http://www.w3.org/2000/svg" xmlns:xlink="http://www.w3.org/1999/xlink"><linearGradient id="a" gradientTransform="matrix(1.25 0 0 -1.25 0 252.5)" gradientUnits="userSpaceOnUse" x1="91.2612" x2="150.787201" y1="185.7845" y2="151.417099"><stop offset=".3102" stop-color="#19bed5"/><stop offset=".3796" stop-color="#14bbc7"/><stop offset=".654" stop-color="#00b095"/><stop offset=".7659" stop-color="#01a2a1"/><stop offset=".9727" stop-color="#018eb3"/></linearGradient><linearGradient id="b" gradientTransform="matrix(1.25 0 0 -1.25 0 252.5)" gradientUnits="userSpaceOnUse" x1="69.373703" x2="113.112503" y1="-1.4263" y2="42.3125"><stop offset=".4048" stop-color="#00b095"/><stop offset=".4841" stop-color="#00af98"/><stop offset=".5517" stop-color="#00aca3"/><stop offset=".6148" stop-color="#00a8b4"/><stop offset=".6251" stop-color="#00a7b8"/><stop offset=".6717" stop-color="#01a0b2"/><stop offset=".7412" stop-color="#038ca0"/><stop offset=".8251" stop-color="#076a84"/><stop offset=".9192" stop-color="#0c3d5e"/><stop offset="1" stop-color="#111038"/></linearGradient><linearGradient id="c" gradientTransform="matrix(1.25 0 0 -1.25 0 252.5)" gradientUnits="userSpaceOnUse" x1="5.9218" x2="105.165497" y1="106.691498" y2="70.569702"><stop offset=".5195" stop-color="#4dc4cf"/><stop offset=".585" stop-color="#4cc0cb"/><stop offset=".6568" stop-color="#47b2c0"/><stop offset=".7317" stop-color="#409cae"/><stop offset=".8087" stop-color="#357e94"/><stop offset=".8874" stop-color="#285673"/><stop offset=".9662" stop-color="#18264b"/><stop offset="1" stop-color="#111038"/></linearGradient><linearGradient id="d" gradientTransform="matrix(1.25 0 0 -1.25 0 252.5)" gradientUnits="userSpaceOnUse" x1="34.284599" x2="72.068604" y1="100.473" y2="122.287598"><stop offset=".1615" stop-color="#4dc4cf"/><stop offset=".2531" stop-color="#4abbc8"/><stop offset=".4005" stop-color="#42a4b4"/><stop offset=".5853" stop-color="#357d94"/><stop offset=".7979" stop-color="#244867"/><stop offset="1" stop-color="#111038"/></linearGradient><linearGradient id="e" gradientTransform="matrix(1.25 0 0 -1.25 0 252.5)" gradientUnits="userSpaceOnUse" x1="-187.3629" x2="103.0774" y1="158.300003" y2="158.300003"><stop offset=".824" stop-color="#4dc4cf"/><stop offset=".8593" stop-color="#4cc1cc"/><stop offset=".8858" stop-color="#49b7c4"/><stop offset=".9096" stop-color="#43a7b7"/><stop offset=".9317" stop-color="#3c90a4"/><stop offset=".9527" stop-color="#32738b"/><stop offset=".9728" stop-color="#264e6c"/><stop offset=".9919" stop-color="#172449"/><stop offset="1" stop-color="#111038"/></linearGradient><linearGradient id="f" gradientTransform="matrix(1.25 0 0 -1.25 0 252.5)" gradientUnits="userSpaceOnUse" x1="149.695007" x2="94.835197" y1="65.4562" y2="160.476196"><stop offset=".5674" stop-color="#0488a4"/><stop offset=".6312" stop-color="#1294ac"/><stop offset=".7508" stop-color="#36b1c1"/><stop offset=".8184" stop-color="#4dc4cf"/></linearGradient><linearGradient id="g" gradientTransform="matrix(1.25 0 0 -1.25 0 252.5)" gradientUnits="userSpaceOnUse" x1="150.299393" x2="91.0289" y1="52.2342" y2="86.453903"><stop offset=".2743" stop-color="#0488a4"/><stop offset=".3044" stop-color="#0c8fa9"/><stop offset=".4334" stop-color="#28a6b9"/><stop offset=".5624" stop-color="#3db7c5"/><stop offset=".6903" stop-color="#49c1cd"/><stop offset=".8158" stop-color="#4dc4cf"/></linearGradient><path d="m175.5 75.5c-.125-.375-.375-.75-.5-1.125-18.625-41-44.375-68.875-49.125-73.75-.125-.125-.125-.125-.25-.25 2 11.125 3.625 25.625 3 40.5v1.75c-.125 2.125-.25 4.125-.5 6.25 4.25 4.5 8.875 8.375 12.875 11.5 2.375 1.875 4.375 3.375 6.125 4.625 6.25 4.625 14.25 9.375 22.625 13.25 2.75 1.25 5.5 2.375 8.25 3.5-1-2.25-1.75-4.25-2.5-6.25zm0 0" fill="url(#a)"/><path d="m134 202c-3.875-5.75-7.375-12.5-10.125-19.625-4.75 17.375-13.125 31.375-22 42.25l23.75 25.375v-.125.125l26-28.875c-9.75-7.625-15.5-16-17.625-19.125zm0 0" fill="url(#b)"/><path d="m100.5 99.875c-4.875 4.125-10 7.125-14.875 9.375-1.5 8.875-5.5 17.875-11.25 25.375-3.375 4.375-7.25 8.375-11.625 11.375-2.25 1.625-4.5 2.875-6.75 4 0 .375-.125.75-.125 1.125 0 0 20.875 2 29.375 22 4.875 11.5 2.875 36.5 2.875 36.5l13.75 14.625c8.875-10.875 17.25-24.875 22-42.25.625-2.25 1.125-4.5 1.625-6.75.5-2.5 1-5.125 1.375-7.875.875-7.125 1.75-21.875-1.625-40.625-.125-.625-.25-1.25-.375-1.875-2.25-11.5-6-24.5-12.25-38.125-3.75 5.25-7.875 9.5-12.125 13.125zm0 0" fill="url(#c)"/><path d="m74.375 134.625c5.75-7.5 9.875-16.5 11.25-25.375 1.375-8.375.5-16.625-3.625-23.375-2-3.375-4.625-6-7.625-8.125-5 11.625-9.5 24.375-12.75 37.75-2.75 11-4.625 22.5-5.5 34.5 2.25-1.125 4.5-2.375 6.75-4 4.375-3.125 8.125-7 11.5-11.375zm0 0" fill="url(#d)"/><path d="m125.5.375c-.25-.375-.25-.375-.375-.375-.25 0-.5.25-.875.5-.125.125-.75.75-.75.75s-28.625 29-49.125 76.5c3 2.125 5.625 4.75 7.625 8.125 4.125 6.75 5 15 3.625 23.375 4.875-2.25 9.875-5.25 14.875-9.375 4.25-3.5 8.375-7.875 12.125-13.125 1.875-2.625 3.625-5.375 5.25-8.5.625-1.125 1.125-2.125 1.625-3.25 4.25-8.25 7.5-16.25 8.5-26.125 0-.125 0 0 0-.125.5-2.75.5-5.625.625-8.375.625-14.75-1-28.875-3.125-40zm0 0" fill="url(#e)"/><path d="m169.75 78c-8.375-3.875-16.375-8.625-22.625-13.25-1.625-1.25-3.75-2.75-6.125-4.625-4.625-3.375-8.875-7.375-12.875-11.5v.125c-1 10-4.25 18-8.5 26.25-.5 1.25-1.125 2.375-1.75 3.625-1.625 3.125-3.375 5.875-5.25 8.5 6.25 13.75 10 26.625 12.25 38.125.875-1 1.75-1.875 2.75-2.75 11.5-9.75 29.25-6.25 35.5-4.75-1.25-2.5-2.125-5.125-2.625-8.75-1.125-7.25-.5-19 6-27.25 1-1.625 2.125-2.75 3.25-3.75zm0 0" fill="url(#f)"/><path d="m184.5 136c-5.5-2.25-12.625-5.75-16.875-11.25-2-2.625-3.5-4.75-4.625-6.875-6.25-1.5-24-5-35.5 4.75-1 .875-1.875 1.75-2.75 2.75l.375 1.875c3.375 18.875 2.625 33.5 1.625 40.625-.375 2.625-.875 5.25-1.375 7.875-.5 2.25-1 4.5-1.625 6.75 2.75 7.125 6.25 13.875 10.125 19.625 2.125 3.125 7.875 11.375 17.625 19.125l10-11.125s-2.125-25 2.875-36.5c8.625-20 29.375-22 29.375-22-.125-4.375-.5-8.75-1-13-2.75-.875-6.625-2-8.25-2.625zm0 0" fill="url(#g)"/><path d="m192.625 136.75c-2.375-20-7.875-38.5-14.75-55.25-2.75-1-5.625-2.25-8.25-3.5-1 1-2.125 2.125-3.25 3.625-6.5 8.375-7.125 20-6 27.25.625 3.75 1.375 6.375 2.625 8.75 1.125 2.25 2.625 4.25 4.625 6.875 4.25 5.5 11.375 9.125 16.875 11.25 1.625.625 5.5 1.75 8.375 2.5-.125-.375-.125-.875-.25-1.5zm0 0" fill="#4dc4cf"/></svg>

<!-- Generator: Adobe Illustrator 21.0.2, SVG Export Plug-In . SVG Version: 6.00 Build 0)  -->
<svg xmlns="http://www.w3.org/2000/svg" xmlns:xlink="http://www.w3.org/1999/xlink" width="250px" height="250px" viewBox="0 0 250 250" version="1.1">
<defs>
<linearGradient id="linear0" gradientUnits="userSpaceOnUse" x1="91.2612" y1="185.7845" x2="150.787201" y2="151.417099" gradientTransform="matrix(1.25,0,0,-1.25,0,252.5)">
<stop offset="0.3102" style="stop-color:rgb(9.803922%,74.509805%,83.529413%);stop-opacity:1;"/>
<stop offset="0.3796" style="stop-color:rgb(7.843138%,73.333335%,78.039217%);stop-opacity:1;"/>
<stop offset="0.654" style="stop-color:rgb(0%,69.01961%,58.431375%);stop-opacity:1;"/>
<stop offset="0.7659" style="stop-color:rgb(0.392157%,63.529414%,63.137257%);stop-opacity:1;"/>
<stop offset="0.9727" style="stop-color:rgb(0.392157%,55.686277%,70.19608%);stop-opacity:1;"/>
</linearGradient>
<linearGradient id="linear1" gradientUnits="userSpaceOnUse" x1="69.373703" y1="-1.4263" x2="113.112503" y2="42.3125" gradientTransform="matrix(1.25,0,0,-1.25,0,252.5)">
<stop offset="0.4048" style="stop-color:rgb(0%,69.01961%,58.431375%);stop-opacity:1;"/>
<stop offset="0.4841" style="stop-color:rgb(0%,68.627453%,59.607846%);stop-opacity:1;"/>
<stop offset="0.5517" style="stop-color:rgb(0%,67.450982%,63.921571%);stop-opacity:1;"/>
<stop offset="0.6148" style="stop-color:rgb(0%,65.882355%,70.588237%);stop-opacity:1;"/>
<stop offset="0.6251" style="stop-color:rgb(0%,65.490198%,72.156864%);stop-opacity:1;"/>
<stop offset="0.6717" style="stop-color:rgb(0.392157%,62.7451%,69.803923%);stop-opacity:1;"/>
<stop offset="0.7412" style="stop-color:rgb(1.176471%,54.901963%,62.7451%);stop-opacity:1;"/>
<stop offset="0.8251" style="stop-color:rgb(2.745098%,41.568628%,51.764709%);stop-opacity:1;"/>
<stop offset="0.9192" style="stop-color:rgb(4.705882%,23.921569%,36.862746%);stop-opacity:1;"/>
<stop offset="1" style="stop-color:rgb(6.666667%,6.27451%,21.960784%);stop-opacity:1;"/>
</linearGradient>
<linearGradient id="linear2" gradientUnits="userSpaceOnUse" x1="5.9218" y1="106.691498" x2="105.165497" y2="70.569702" gradientTransform="matrix(1.25,0,0,-1.25,0,252.5)">
<stop offset="0.5195" style="stop-color:rgb(30.19608%,76.862746%,81.176472%);stop-opacity:1;"/>
<stop offset="0.585" style="stop-color:rgb(29.803923%,75.294119%,79.607844%);stop-opacity:1;"/>
<stop offset="0.6568" style="stop-color:rgb(27.843139%,69.803923%,75.294119%);stop-opacity:1;"/>
<stop offset="0.7317" style="stop-color:rgb(25.098041%,61.176473%,68.235296%);stop-opacity:1;"/>
<stop offset="0.8087" style="stop-color:rgb(20.784314%,49.411765%,58.039218%);stop-opacity:1;"/>
<stop offset="0.8874" style="stop-color:rgb(15.686275%,33.725491%,45.09804%);stop-opacity:1;"/>
<stop offset="0.9662" style="stop-color:rgb(9.411765%,14.901961%,29.411766%);stop-opacity:1;"/>
<stop offset="1" style="stop-color:rgb(6.666667%,6.27451%,21.960784%);stop-opacity:1;"/>
</linearGradient>
<linearGradient id="linear3" gradientUnits="userSpaceOnUse" x1="34.284599" y1="100.473" x2="72.068604" y2="122.287598" gradientTransform="matrix(1.25,0,0,-1.25,0,252.5)">
<stop offset="0.1615" style="stop-color:rgb(30.19608%,76.862746%,81.176472%);stop-opacity:1;"/>
<stop offset="0.2531" style="stop-color:rgb(29.019609%,73.333335%,78.431374%);stop-opacity:1;"/>
<stop offset="0.4005" style="stop-color:rgb(25.882354%,64.313728%,70.588237%);stop-opacity:1;"/>
<stop offset="0.5853" style="stop-color:rgb(20.784314%,49.019608%,58.039218%);stop-opacity:1;"/>
<stop offset="0.7979" style="stop-color:rgb(14.117648%,28.235295%,40.392157%);stop-opacity:1;"/>
<stop offset="1" style="stop-color:rgb(6.666667%,6.27451%,21.960784%);stop-opacity:1;"/>
</linearGradient>
<linearGradient id="linear4" gradientUnits="userSpaceOnUse" x1="-187.3629" y1="158.300003" x2="103.0774" y2="158.300003" gradientTransform="matrix(1.25,0,0,-1.25,0,252.5)">
<stop offset="0.824" style="stop-color:rgb(30.19608%,76.862746%,81.176472%);stop-opacity:1;"/>
<stop offset="0.8593" style="stop-color:rgb(29.803923%,75.686276%,80.000001%);stop-opacity:1;"/>
<stop offset="0.8858" style="stop-color:rgb(28.627452%,71.764708%,76.862746%);stop-opacity:1;"/>
<stop offset="0.9096" style="stop-color:rgb(26.274511%,65.490198%,71.764708%);stop-opacity:1;"/>
<stop offset="0.9317" style="stop-color:rgb(23.529412%,56.470591%,64.313728%);stop-opacity:1;"/>
<stop offset="0.9527" style="stop-color:rgb(19.607843%,45.09804%,54.509807%);stop-opacity:1;"/>
<stop offset="0.9728" style="stop-color:rgb(14.901961%,30.588236%,42.352942%);stop-opacity:1;"/>
<stop offset="0.9919" style="stop-color:rgb(9.019608%,14.117648%,28.627452%);stop-opacity:1;"/>
<stop offset="1" style="stop-color:rgb(6.666667%,6.27451%,21.960784%);stop-opacity:1;"/>
</linearGradient>
<linearGradient id="linear5" gradientUnits="userSpaceOnUse" x1="149.695007" y1="65.4562" x2="94.835197" y2="160.476196" gradientTransform="matrix(1.25,0,0,-1.25,0,252.5)">
<stop offset="0.5674" style="stop-color:rgb(1.568628%,53.333336%,64.313728%);stop-opacity:1;"/>
<stop offset="0.6312" style="stop-color:rgb(7.058824%,58.039218%,67.450982%);stop-opacity:1;"/>
<stop offset="0.7508" style="stop-color:rgb(21.176471%,69.411767%,75.686276%);stop-opacity:1;"/>
<stop offset="0.8184" style="stop-color:rgb(30.19608%,76.862746%,81.176472%);stop-opacity:1;"/>
</linearGradient>
<linearGradient id="linear6" gradientUnits="userSpaceOnUse" x1="150.299393" y1="52.2342" x2="91.0289" y2="86.453903" gradientTransform="matrix(1.25,0,0,-1.25,0,252.5)">
<stop offset="0.2743" style="stop-color:rgb(1.568628%,53.333336%,64.313728%);stop-opacity:1;"/>
<stop offset="0.3044" style="stop-color:rgb(4.705882%,56.078434%,66.274512%);stop-opacity:1;"/>
<stop offset="0.4334" style="stop-color:rgb(15.686275%,65.098041%,72.549021%);stop-opacity:1;"/>
<stop offset="0.5624" style="stop-color:rgb(23.921569%,71.764708%,77.254903%);stop-opacity:1;"/>
<stop offset="0.6903" style="stop-color:rgb(28.627452%,75.686276%,80.392158%);stop-opacity:1;"/>
<stop offset="0.8158" style="stop-color:rgb(30.19608%,76.862746%,81.176472%);stop-opacity:1;"/>
</linearGradient>
</defs>
<g id="surface1">
<path style=" stroke:none;fill-rule:nonzero;fill:url(#linear0);" d="M 175.5 75.5 C 175.375 75.125 175.125 74.75 175 74.375 C 156.375 33.375 130.625 5.5 125.875 0.625 C 125.75 0.5 125.75 0.5 125.625 0.375 C 127.625 11.5 129.25 26 128.625 40.875 C 128.625 41.5 128.625 42 128.625 42.625 C 128.5 44.75 128.375 46.75 128.125 48.875 C 132.375 53.375 137 57.25 141 60.375 C 143.375 62.25 145.375 63.75 147.125 65 C 153.375 69.625 161.375 74.375 169.75 78.25 C 172.5 79.5 175.25 80.625 178 81.75 C 177 79.5 176.25 77.5 175.5 75.5 Z M 175.5 75.5 "/>
<path style=" stroke:none;fill-rule:nonzero;fill:url(#linear1);" d="M 134 202 C 130.125 196.25 126.625 189.5 123.875 182.375 C 119.125 199.75 110.75 213.75 101.875 224.625 L 125.625 250 L 125.625 249.875 L 125.625 250 L 151.625 221.125 C 141.875 213.5 136.125 205.125 134 202 Z M 134 202 "/>
<path style=" stroke:none;fill-rule:nonzero;fill:url(#linear2);" d="M 100.5 99.875 C 95.625 104 90.5 107 85.625 109.25 C 84.125 118.125 80.125 127.125 74.375 134.625 C 71 139 67.125 143 62.75 146 C 60.5 147.625 58.25 148.875 56 150 C 56 150.375 55.875 150.75 55.875 151.125 C 55.875 151.125 76.75 153.125 85.25 173.125 C 90.125 184.625 88.125 209.625 88.125 209.625 L 101.875 224.25 C 110.75 213.375 119.125 199.375 123.875 182 C 124.5 179.75 125 177.5 125.5 175.25 C 126 172.75 126.5 170.125 126.875 167.375 C 127.75 160.25 128.625 145.5 125.25 126.75 C 125.125 126.125 125 125.5 124.875 124.875 C 122.625 113.375 118.875 100.375 112.625 86.75 C 108.875 92 104.75 96.25 100.5 99.875 Z M 100.5 99.875 "/>
<path style=" stroke:none;fill-rule:nonzero;fill:url(#linear3);" d="M 74.375 134.625 C 80.125 127.125 84.25 118.125 85.625 109.25 C 87 100.875 86.125 92.625 82 85.875 C 80 82.5 77.375 79.875 74.375 77.75 C 69.375 89.375 64.875 102.125 61.625 115.5 C 58.875 126.5 57 138 56.125 150 C 58.375 148.875 60.625 147.625 62.875 146 C 67.25 142.875 71 139 74.375 134.625 Z M 74.375 134.625 "/>
<path style=" stroke:none;fill-rule:nonzero;fill:url(#linear4);" d="M 125.5 0.375 C 125.25 0 125.25 0 125.125 0 C 124.875 0 124.625 0.25 124.25 0.5 C 124.125 0.625 123.5 1.25 123.5 1.25 C 123.5 1.25 94.875 30.25 74.375 77.75 C 77.375 79.875 80 82.5 82 85.875 C 86.125 92.625 87 100.875 85.625 109.25 C 90.5 107 95.5 104 100.5 99.875 C 104.75 96.375 108.875 92 112.625 86.75 C 114.5 84.125 116.25 81.375 117.875 78.25 C 118.5 77.125 119 76.125 119.5 75 C 123.75 66.75 127 58.75 128 48.875 C 128 48.75 128 48.875 128 48.75 C 128.5 46 128.5 43.125 128.625 40.375 C 129.25 25.625 127.625 11.5 125.5 0.375 Z M 125.5 0.375 "/>
<path style=" stroke:none;fill-rule:nonzero;fill:url(#linear5);" d="M 169.75 78 C 161.375 74.125 153.375 69.375 147.125 64.75 C 145.5 63.5 143.375 62 141 60.125 C 136.375 56.75 132.125 52.75 128.125 48.625 C 128.125 48.75 128.125 48.625 128.125 48.75 C 127.125 58.75 123.875 66.75 119.625 75 C 119.125 76.25 118.5 77.375 117.875 78.625 C 116.25 81.75 114.5 84.5 112.625 87.125 C 118.875 100.875 122.625 113.75 124.875 125.25 C 125.75 124.25 126.625 123.375 127.625 122.5 C 139.125 112.75 156.875 116.25 163.125 117.75 C 161.875 115.25 161 112.625 160.5 109 C 159.375 101.75 160 90 166.5 81.75 C 167.5 80.125 168.625 79 169.75 78 Z M 169.75 78 "/>
<path style=" stroke:none;fill-rule:nonzero;fill:url(#linear6);" d="M 184.5 136 C 179 133.75 171.875 130.25 167.625 124.75 C 165.625 122.125 164.125 120 163 117.875 C 156.75 116.375 139 112.875 127.5 122.625 C 126.5 123.5 125.625 124.375 124.75 125.375 C 124.875 126 125 126.625 125.125 127.25 C 128.5 146.125 127.75 160.75 126.75 167.875 C 126.375 170.5 125.875 173.125 125.375 175.75 C 124.875 178 124.375 180.25 123.75 182.5 C 126.5 189.625 130 196.375 133.875 202.125 C 136 205.25 141.75 213.5 151.5 221.25 L 161.5 210.125 C 161.5 210.125 159.375 185.125 164.375 173.625 C 173 153.625 193.75 151.625 193.75 151.625 C 193.625 147.25 193.25 142.875 192.75 138.625 C 190 137.75 186.125 136.625 184.5 136 Z M 184.5 136 "/>
<path style=" stroke:none;fill-rule:nonzero;fill:rgb(30.19608%,76.862746%,81.176472%);fill-opacity:1;" d="M 192.625 136.75 C 190.25 116.75 184.75 98.25 177.875 81.5 C 175.125 80.5 172.25 79.25 169.625 78 C 168.625 79 167.5 80.125 166.375 81.625 C 159.875 90 159.25 101.625 160.375 108.875 C 161 112.625 161.75 115.25 163 117.625 C 164.125 119.875 165.625 121.875 167.625 124.5 C 171.875 130 179 133.625 184.5 135.75 C 186.125 136.375 190 137.5 192.875 138.25 C 192.75 137.875 192.75 137.375 192.625 136.75 Z M 192.625 136.75 "/>
</g>
</svg>
